svg/part/mouth_fill.svg

<?xml version="1.0" encoding="UTF-8"?>
<svg width="24px" height="24px" viewBox="0 0 24 24" version="1.1" xmlns="http://www.w3.org/2000/svg" xmlns:xlink="http://www.w3.org/1999/xlink">
    <title>mouth_fill</title>
    <g id="页面-1" stroke="none" stroke-width="1" fill="none" fill-rule="evenodd">
        <g id="Part" transform="translate(-384.000000, -48.000000)">
            <g id="mouth_fill" transform="translate(384.000000, 48.000000)">
                 <path d="M24,0 L24,24 L0,24 L0,0 L24,0 Z M12.5934901,23.257841 L12.5819402,23.2595131 L12.5108777,23.2950439 L12.4918791,23.2987469 L12.4918791,23.2987469 L12.4767152,23.2950439 L12.4056548,23.2595131 C12.3958229,23.2563662 12.3870493,23.2590235 12.3821421,23.2649074 L12.3780323,23.275831 L12.360941,23.7031097 L12.3658947,23.7234994 L12.3769048,23.7357139 L12.4804777,23.8096931 L12.4953491,23.8136134 L12.4953491,23.8136134 L12.5071152,23.8096931 L12.6106902,23.7357139 L12.6232938,23.7196733 L12.6232938,23.7196733 L12.6266527,23.7031097 L12.609561,23.275831 C12.6075724,23.2657013 12.6010112,23.2592993 12.5934901,23.257841 L12.5934901,23.257841 Z M12.8583906,23.1452862 L12.8445485,23.1473072 L12.6598443,23.2396597 L12.6498822,23.2499052 L12.6498822,23.2499052 L12.6471943,23.2611114 L12.6650943,23.6906389 L12.6699349,23.7034178 L12.6699349,23.7034178 L12.678386,23.7104931 L12.8793402,23.8032389 C12.8914285,23.8068999 12.9022333,23.8029875 12.9078286,23.7952264 L12.9118235,23.7811639 L12.8776777,23.1665331 C12.8752882,23.1545897 12.8674102,23.1470016 12.8583906,23.1452862 L12.8583906,23.1452862 Z M12.1430473,23.1473072 C12.1332178,23.1423925 12.1221763,23.1452606 12.1156365,23.1525954 L12.1099173,23.1665331 L12.0757714,23.7811639 C12.0751323,23.7926639 12.0828099,23.8018602 12.0926481,23.8045676 L12.108256,23.8032389 L12.3092106,23.7104931 L12.3186497,23.7024347 L12.3186497,23.7024347 L12.3225043,23.6906389 L12.340401,23.2611114 L12.337245,23.2485176 L12.337245,23.2485176 L12.3277531,23.2396597 L12.1430473,23.1473072 Z" id="MingCute" fill-rule="nonzero"></path>
                <path d="M20.3143,8.03775 C18.9074,7.07308 16.9416,6.0781 14.9267,6.00193 C14.1207,5.97146 13.4445,6.30726 12.7598,6.64733 C12.5678,6.74269 12.3752,6.83838 12.1788,6.92644 C12.0236,6.99598 11.9764,6.99598 11.8212,6.92644 C11.6248,6.83839 11.4322,6.7427 11.2402,6.64735 C10.5555,6.30728 9.87934,5.97148 9.07333,6.00196 C7.05843,6.07815 5.09261,7.07311 3.68571,8.03777 C2.76327,8.67025 1,9.6837 1,11.0007 C1,12.4522 2.9368,14.1171 3.91411,14.9494 C5.72969,16.4957 8.45115,18.000002 12,18.000002 C15.5489,18.000002 18.2703,16.4957 20.0859,14.9494 C21.1019,14.0841 23,12.513 23,11.0007 C23,9.72309 21.206,8.64915 20.3143,8.03775 Z M12,13 C15.1535,13 18.1821,12.5101 21,11.6088 C19.5309,11.2126 17.976,11 16.3668,11 C14.8546,11 13.3902,11.1878 12,11.5392 C10.6098,11.1878 9.14543,11 7.6332,11 C6.02404,11 4.46909,11.2126 3,11.6088 C5.81791,12.5101 8.8465,13 12,13 Z" id="形状" fill="#09244B"></path>
            </g>
        </g>
    </g>
</svg>

<svg xmlns="http://www.w3.org/2000/svg" width="24" height="24"><g fill="none" fill-rule="evenodd"><path d="M24 0v24H0V0h24ZM12.593 23.258l-.011.002-.071.035-.02.004-.014-.004-.071-.035c-.01-.004-.019-.001-.024.005l-.004.01-.017.428.005.02.01.013.104.074.015.004.012-.004.104-.074.012-.016.004-.017-.017-.427c-.002-.01-.009-.017-.017-.018Zm.265-.113-.013.002-.185.093-.01.01-.003.011.018.43.005.012.008.007.201.093c.012.004.023 0 .029-.008l.004-.014-.034-.614c-.003-.012-.01-.02-.02-.022Zm-.715.002a.023.023 0 0 0-.027.006l-.006.014-.034.614c0 .012.007.02.017.024l.015-.002.201-.093.01-.008.004-.011.017-.43-.003-.012-.01-.01-.184-.092Z"/><path fill="#09244B" d="M20.314 8.038c-1.407-.965-3.372-1.96-5.387-2.036-.806-.03-1.482.305-2.167.645-.192.096-.385.191-.581.28-.155.069-.203.069-.358 0-.196-.089-.389-.184-.58-.28-.685-.34-1.362-.676-2.168-.645-2.015.076-3.98 1.071-5.387 2.036C2.763 8.67 1 9.684 1 11c0 1.451 1.937 3.116 2.914 3.948C5.73 16.496 8.451 18 12 18c3.549 0 6.27-1.504 8.086-3.05C21.102 14.083 23 12.512 23 11c0-1.277-1.794-2.35-2.686-2.962ZM12 13c3.153 0 6.182-.49 9-1.391A17.781 17.781 0 0 0 16.367 11c-1.512 0-2.977.188-4.367.54A17.808 17.808 0 0 0 7.633 11c-1.609 0-3.164.213-4.633.609A29.517 29.517 0 0 0 12 13Z"/></g></svg>
